X:296
T: Bekehrt (3-98), S. 268
N: P1071
O: Lothringen
S: PINCK, Louis: Verklingende Weisen, Bd3, Metz 1933]
R: Trinklied]
M: 3/8
L: 1/16
K: G
D2 | G4D2 | G3AB2 | A4B2 | A4
BA | G4D2 | G4B2 | A6- | A2z2
A2 | A4d2 | d4e2 | d4c2 | A4
B2 | c4d2 | B4A2 | G6- | G2z2

@@@ Tune index: 7846
